icons/mini/finger-print.svg

<svg width="20" height="20" viewBox="0 0 20 20" fill="none" xmlns="http://www.w3.org/2000/svg">
<path fill-rule="evenodd" clip-rule="evenodd" d="M9.99999 2.5C8.69048 2.5 7.47351 2.88645 6.45417 3.55132C6.10723 3.77761 5.64254 3.6798 5.41625 3.33287C5.18996 2.98593 5.28777 2.52123 5.6347 2.29494C6.89037 1.47594 8.39074 1 9.99999 1C14.4183 1 18 4.58172 18 9C18 11.573 17.5678 14.0467 16.7714 16.3514C16.6361 16.7429 16.2091 16.9506 15.8176 16.8153C15.4261 16.6801 15.2184 16.253 15.3537 15.8615C16.0963 13.7123 16.5 11.4041 16.5 9C16.5 5.41015 13.5898 2.5 9.99999 2.5ZM4.33285 4.41627C4.67979 4.64256 4.77759 5.10725 4.5513 5.45419C3.88644 6.47353 3.49999 7.69049 3.49999 9C3.49999 10.6078 3.02489 12.107 2.20721 13.362C1.98109 13.709 1.51645 13.807 1.1694 13.5809C0.82235 13.3548 0.724315 12.8902 0.950433 12.5431C1.61422 11.5243 1.99999 10.3084 1.99999 9C1.99999 7.39075 2.47592 5.89038 3.29493 4.63472C3.52122 4.28778 3.98591 4.18998 4.33285 4.41627ZM9.99999 6.12C8.34313 6.12 6.99999 7.46314 6.99999 9.12C6.99999 9.13378 6.99961 9.14748 6.99888 9.16108C6.96101 11.9169 5.95296 14.4401 4.30164 16.4018C4.03489 16.7187 3.56176 16.7593 3.24487 16.4926C2.92798 16.2258 2.88733 15.7527 3.15408 15.4358C4.61842 13.6962 5.49999 11.452 5.49999 9C5.49999 8.97218 5.5015 8.94471 5.50445 8.91767C5.61027 6.52628 7.58251 4.62 9.99999 4.62C12.4174 4.62 14.3896 6.52613 14.4955 8.91754C14.4985 8.94516 14.5 8.97323 14.5 9.00166L14.4998 9.0815L14.5 9.11633C14.5 9.12755 14.4998 9.13872 14.4994 9.14983C14.4986 9.24922 14.4971 9.34844 14.4948 9.44749C14.4852 9.86159 14.1418 10.1895 13.7277 10.1799C13.3136 10.1704 12.9856 9.8269 12.9952 9.4128C12.9977 9.30372 12.9993 9.19439 12.9998 9.08481C12.981 7.44426 11.6451 6.12 9.99999 6.12ZM9.99999 8.25C10.4142 8.25 10.75 8.58579 10.75 9C10.75 12.5103 9.56303 15.7455 7.569 18.3232C7.31556 18.6509 6.84451 18.711 6.51688 18.4576C6.18925 18.2041 6.12912 17.7331 6.38256 17.4054C8.18049 15.0812 9.24999 12.1666 9.24999 9C9.24999 8.58579 9.58577 8.25 9.99999 8.25ZM13.5288 11.9478C13.9346 12.0309 14.1962 12.4273 14.113 12.8331C13.6842 14.9261 12.9112 16.8937 11.8562 18.6738C11.645 19.0302 11.1849 19.1478 10.8286 18.9366C10.4723 18.7254 10.3546 18.2654 10.5658 17.9091C11.5374 16.2697 12.2488 14.4585 12.6436 12.532C12.7267 12.1262 13.123 11.8646 13.5288 11.9478Z" fill="#0F172A"/>
</svg>

<svg xmlns="http://www.w3.org/2000/svg" viewBox="0 0 20 20" fill="currentColor" aria-hidden="true">
  <path fill-rule="evenodd" d="M10 2.5c-1.31 0-2.526.386-3.546 1.051a.75.75 0 01-.82-1.256A8 8 0 0118 9a22.47 22.47 0 01-1.228 7.351.75.75 0 11-1.417-.49A20.97 20.97 0 0016.5 9 6.5 6.5 0 0010 2.5zM4.333 4.416a.75.75 0 01.218 1.038A6.466 6.466 0 003.5 9a7.966 7.966 0 01-1.293 4.362.75.75 0 01-1.257-.819A6.466 6.466 0 002 9c0-1.61.476-3.11 1.295-4.365a.75.75 0 011.038-.219zM10 6.12a3 3 0 00-3.001 3.041 11.455 11.455 0 01-2.697 7.24.75.75 0 01-1.148-.965A9.957 9.957 0 005.5 9c0-.028.002-.055.004-.082a4.5 4.5 0 018.996.084V9.15l-.005.297a.75.75 0 11-1.5-.034c.003-.11.004-.219.005-.328a3 3 0 00-3-2.965zm0 2.13a.75.75 0 01.75.75c0 3.51-1.187 6.745-3.181 9.323a.75.75 0 11-1.186-.918A13.687 13.687 0 009.25 9a.75.75 0 01.75-.75zm3.529 3.698a.75.75 0 01.584.885 18.883 18.883 0 01-2.257 5.84.75.75 0 11-1.29-.764 17.386 17.386 0 002.078-5.377.75.75 0 01.885-.584z" clip-rule="evenodd"/>
</svg>
